X: 1439
T: Dooley's Fancy
M:C|
L:1/8
N:"collected by McFadden"
B:O'Neill's 1439
Z:"Transcribed by Bob Safranek, rjs@gsp.org"
K:A
"   Sign"e2 | cAEA  ceae | dcBA GABd | cAce         agaf  | eagb afed         |
              cAEA  ceae | dcBA GABd | cAce        a2 (af)| edcB "   Fine"A2  ||
(fg)        | a2 ge fecA | dcBA GAfg | a2 (ge)      fecA  | fagb aefg         |
              agag  fedc | dcBA GABd | ((3cBA) (eA) fagb  | afed cea"   Sign"e|]


